; generated by Slic3r 1.0.0RC2 on 2015-08-26 at 12:22:53

; layer_height = 0.3
; perimeters = 2
; top_solid_layers = 3
; bottom_solid_layers = 3
; fill_density = 0.1
; perimeter_speed = 60
; infill_speed = 60
; travel_speed = 120
; nozzle_diameter = 0.4
; filament_diameter = 1.75
; extrusion_multiplier = 0.98
; perimeters extrusion width = 0.40mm
; infill extrusion width = 0.42mm
; solid infill extrusion width = 0.42mm
; top infill extrusion width = 0.42mm
; first layer extrusion width = 0.80mm

G21 ; set units to millimeters
M107
M104 S220 ; set temperature
G28 ; home all axes
M106 S255;
G1 Z200 F1200 ; lift nozzle
M109 S220 ; wait for temperature to be reached
G90 ; use absolute coordinates
G92 E0
M82 ; use absolute distances for extrusion
G1 F1800.000 E-1.00000
G92 E0
G1 Z0.400 F7200.000
G1 X114.290 Y50.440 F7200.000
G1 E1.00000 F1800.000
G1 X114.910 Y49.290 E1.15206 F1080.000
G1 X115.730 Y48.270 E1.30439
G1 X116.740 Y47.440 E1.45654
G1 X117.890 Y46.810 E1.60916
G1 X119.140 Y46.420 E1.76156
G1 X120.440 Y46.290 E1.91362
G1 X144.680 Y46.090 E4.73501
G1 X179.500 Y46.090 E8.78770
G1 X180.810 Y46.210 E8.94081
G1 X182.070 Y46.600 E9.09433
G1 X183.230 Y47.220 E9.24742
G1 X184.250 Y48.050 E9.40047
G1 X185.080 Y49.070 E9.55353
G1 X185.700 Y50.230 E9.70662
G1 X186.090 Y51.490 E9.86013
G1 X186.210 Y52.800 E10.01324
G1 X186.210 Y161.000 E22.60662
G1 X186.090 Y162.310 E22.75973
G1 X185.700 Y163.570 E22.91325
G1 X185.080 Y164.730 E23.06633
G1 X184.250 Y165.750 E23.21939
G1 X183.230 Y166.580 E23.37245
G1 X182.070 Y167.200 E23.52553
G1 X180.810 Y167.590 E23.67905
G1 X179.500 Y167.710 E23.83216
G1 X120.500 Y167.710 E30.69916
G1 X119.190 Y167.590 E30.85227
G1 X117.930 Y167.200 E31.00579
G1 X116.770 Y166.580 E31.15887
G1 X115.750 Y165.750 E31.31193
G1 X114.920 Y164.730 E31.46498
G1 X114.300 Y163.570 E31.61807
G1 X113.910 Y162.310 E31.77159
G1 X113.790 Y161.000 E31.92470
G1 X113.790 Y53.000 E44.49480
G1 X113.910 Y51.700 E44.64675
G1 X114.259 Y50.543 E44.78746
G1 F1800.000 E43.78746
G92 E0
G1 X139.586 Y73.086 F7200.000
G1 E1.00000 F1800.000
G1 X174.414 Y73.086 E5.05366 F1080.000
G1 X174.414 Y113.914 E9.80567
G1 X139.586 Y113.914 E13.85933
G1 X139.586 Y73.193 E18.59886
G1 X140.300 Y73.800 F7200.000
G1 X173.700 Y73.800 E22.48629 F756.000
G1 X173.700 Y113.200 E27.07205
G1 X140.300 Y113.200 E30.95947
G1 X140.300 Y73.907 E35.53276
G1 X140.300 Y73.086 F7200.000
G1 F1800.000 E34.53276
G92 E0
G1 X158.102 Y128.698 F7200.000
G1 E1.00000 F1800.000
G1 X159.216 Y128.486 E1.13196 F540.000
G1 X160.348 Y128.557 E1.26392
G1 X161.426 Y128.907 E1.39588
G1 X162.383 Y129.515 E1.52784
G1 X163.159 Y130.341 E1.65980
G1 X163.705 Y131.335 E1.79175
G1 X163.987 Y132.433 E1.92371
G1 X163.987 Y133.567 E2.05567
G1 X163.705 Y134.665 E2.18763
G1 X163.159 Y135.659 E2.31959
G1 X162.383 Y136.485 E2.45155
G1 X161.426 Y137.093 E2.58351
G1 X160.348 Y137.443 E2.71547
G1 X159.216 Y137.514 E2.84743
G1 X158.102 Y137.302 E2.97939
G1 X157.076 Y136.819 E3.11135
G1 X156.203 Y136.096 E3.24330
G1 X155.536 Y135.179 E3.37527
G1 X155.119 Y134.125 E3.50722
G1 X155.091 Y133.901 E3.53353
G1 X154.977 Y133.000 E3.63918
G1 X155.119 Y131.875 E3.77114
G1 X155.536 Y130.821 E3.90310
G1 X156.203 Y129.904 E4.03506
G1 X157.076 Y129.181 E4.16702
G1 X158.005 Y128.744 E4.28651
G1 X158.325 Y129.383 F7200.000
G1 X159.261 Y129.204 E4.39747 F540.000
G1 X160.213 Y129.264 E4.50843
G1 X161.119 Y129.559 E4.61938
G1 X161.924 Y130.070 E4.73034
G1 X162.577 Y130.765 E4.84130
G1 X163.036 Y131.600 E4.95226
G1 X163.273 Y132.523 E5.06321
G1 X163.273 Y133.477 E5.17417
G1 X163.036 Y134.400 E5.28513
G1 X162.577 Y135.235 E5.39609
G1 X161.924 Y135.930 E5.50705
G1 X161.119 Y136.441 E5.61800
G1 X160.213 Y136.736 E5.72896
G1 X159.261 Y136.796 E5.83992
G1 X158.325 Y136.617 E5.95088
G1 X157.462 Y136.211 E6.06184
G1 X156.728 Y135.603 E6.17279
G1 X156.167 Y134.832 E6.28375
G1 X155.816 Y133.946 E6.39471
G1 X155.697 Y133.000 E6.50567
G1 X155.816 Y132.054 E6.61662
G1 X156.167 Y131.168 E6.72758
G1 X156.728 Y130.397 E6.83854
G1 X157.462 Y129.789 E6.94950
G1 X158.228 Y129.429 E7.04799
G1 X158.502 Y128.691 F7200.000
G1 X148.705 Y131.335 F7200.000
G1 X148.987 Y132.433 E7.17995 F540.000
G1 X148.987 Y133.567 E7.31191
G1 X148.705 Y134.665 E7.44387
G1 X148.159 Y135.659 E7.57582
G1 X147.383 Y136.485 E7.70778
G1 X146.426 Y137.093 E7.83974
G1 X145.348 Y137.443 E7.97170
G1 X145.122 Y137.457 E7.99800
G1 X144.216 Y137.514 E8.10366
G1 X143.102 Y137.302 E8.23562
G1 X142.076 Y136.819 E8.36758
G1 X141.203 Y136.096 E8.49954
G1 X140.536 Y135.179 E8.63150
G1 X140.119 Y134.125 E8.76346
G1 X139.977 Y133.000 E8.89542
G1 X140.119 Y131.875 E9.02737
G1 X140.536 Y130.821 E9.15933
G1 X141.203 Y129.904 E9.29129
G1 X142.076 Y129.181 E9.42325
G1 X143.102 Y128.698 E9.55521
G1 X144.216 Y128.486 E9.68717
G1 X145.348 Y128.557 E9.81913
G1 X146.426 Y128.907 E9.95109
G1 X147.383 Y129.515 E10.08305
G1 X148.159 Y130.341 E10.21501
G1 X148.654 Y131.241 E10.33450
G1 X148.036 Y131.600 F7200.000
G1 X148.273 Y132.523 E10.44545 F540.000
G1 X148.273 Y133.477 E10.55641
G1 X148.036 Y134.400 E10.66737
G1 X147.577 Y135.235 E10.77833
G1 X146.924 Y135.930 E10.88929
G1 X146.119 Y136.441 E11.00024
G1 X145.213 Y136.736 E11.11120
G1 X145.077 Y136.744 E11.12700
G1 X144.261 Y136.796 E11.22216
G1 X143.325 Y136.617 E11.33312
G1 X142.462 Y136.211 E11.44408
G1 X141.728 Y135.603 E11.55503
G1 X141.167 Y134.832 E11.66599
G1 X140.816 Y133.946 E11.77695
G1 X140.697 Y133.000 E11.88791
G1 X140.816 Y132.054 E11.99887
G1 X141.167 Y131.168 E12.10982
G1 X141.728 Y130.397 E12.22078
G1 X142.462 Y129.789 E12.33174
G1 X143.325 Y129.383 E12.44270
G1 X144.261 Y129.204 E12.55365
G1 X145.213 Y129.264 E12.66461
G1 X146.119 Y129.559 E12.77557
G1 X146.924 Y130.070 E12.88653
G1 X147.577 Y130.765 E12.99749
G1 X147.984 Y131.506 E13.09598
G1 X148.738 Y131.734 F7200.000
G1 X149.100 Y113.800 F7200.000
G1 X133.987 Y132.433 F7200.000
G1 X133.987 Y133.567 E13.22794 F540.000
G1 X133.705 Y134.665 E13.35990
G1 X133.159 Y135.659 E13.49185
G1 X132.383 Y136.485 E13.62381
G1 X131.426 Y137.093 E13.75577
G1 X130.348 Y137.443 E13.88773
G1 X129.216 Y137.514 E14.01969
G1 X128.102 Y137.302 E14.15165
G1 X127.076 Y136.819 E14.28361
G1 X126.203 Y136.096 E14.41557
G1 X125.536 Y135.179 E14.54753
G1 X125.119 Y134.125 E14.67949
G1 X124.977 Y133.000 E14.81145
G1 X125.119 Y131.875 E14.94340
G1 X125.536 Y130.821 E15.07536
G1 X126.203 Y129.904 E15.20732
G1 X127.076 Y129.181 E15.33928
G1 X128.102 Y128.698 E15.47124
G1 X129.216 Y128.486 E15.60320
G1 X130.348 Y128.557 E15.73516
G1 X131.426 Y128.907 E15.86712
G1 X132.383 Y129.515 E15.99908
G1 X133.159 Y130.341 E16.13104
G1 X133.705 Y131.335 E16.26300
G1 X133.961 Y132.329 E16.38248
G1 X133.273 Y132.523 F7200.000
G1 X133.273 Y133.477 E16.49344 F540.000
G1 X133.036 Y134.400 E16.60440
G1 X132.577 Y135.235 E16.71536
G1 X131.924 Y135.930 E16.82632
G1 X131.119 Y136.441 E16.93727
G1 X130.213 Y136.736 E17.04823
G1 X129.261 Y136.796 E17.15919
G1 X128.325 Y136.617 E17.27015
G1 X127.462 Y136.211 E17.38111
G1 X126.728 Y135.603 E17.49206
G1 X126.167 Y134.832 E17.60302
G1 X125.816 Y133.946 E17.71398
G1 X125.697 Y133.000 E17.82494
G1 X125.816 Y132.054 E17.93590
G1 X126.167 Y131.168 E18.04685
G1 X126.728 Y130.397 E18.15781
G1 X127.462 Y129.789 E18.26877
G1 X128.325 Y129.383 E18.37973
G1 X129.261 Y129.204 E18.49068
G1 X130.213 Y129.264 E18.60164
G1 X131.119 Y129.559 E18.71260
G1 X131.924 Y130.070 E18.82356
G1 X132.577 Y130.765 E18.93452
G1 X133.036 Y131.600 E19.04547
G1 X133.247 Y132.420 E19.14396
G1 X133.919 Y132.827 F7200.000
G1 X142.076 Y144.181 F7200.000
G1 X143.102 Y143.698 E19.27592 F540.000
G1 X144.216 Y143.486 E19.40788
G1 X145.348 Y143.557 E19.53984
G1 X146.426 Y143.907 E19.67180
G1 X147.383 Y144.515 E19.80376
G1 X148.159 Y145.341 E19.93572
G1 X148.705 Y146.335 E20.06768
G1 X148.987 Y147.433 E20.19963
G1 X148.987 Y148.567 E20.33160
G1 X148.705 Y149.665 E20.46355
G1 X148.159 Y150.659 E20.59551
G1 X147.383 Y151.485 E20.72747
G1 X146.426 Y152.093 E20.85943
G1 X145.348 Y152.443 E20.99139
G1 X144.216 Y152.514 E21.12335
G1 X143.102 Y152.302 E21.25531
G1 X142.076 Y151.819 E21.38727
G1 X141.203 Y151.096 E21.51923
G1 X140.536 Y150.179 E21.65119
G1 X140.119 Y149.125 E21.78314
G1 X139.977 Y148.000 E21.91510
G1 X140.119 Y146.875 E22.04706
G1 X140.536 Y145.821 E22.17902
G1 X141.203 Y144.904 E22.31098
G1 X141.994 Y144.249 E22.43047
G1 X142.462 Y144.789 F7200.000
G1 X143.325 Y144.383 E22.54143 F540.000
G1 X144.261 Y144.204 E22.65239
G1 X145.213 Y144.264 E22.76335
G1 X146.119 Y144.559 E22.87430
G1 X146.924 Y145.070 E22.98526
G1 X147.577 Y145.765 E23.09622
G1 X148.036 Y146.600 E23.20718
G1 X148.273 Y147.523 E23.31813
G1 X148.273 Y148.477 E23.42909
G1 X148.036 Y149.400 E23.54005
G1 X147.577 Y150.235 E23.65101
G1 X146.924 Y150.930 E23.76197
G1 X146.119 Y151.441 E23.87292
G1 X145.213 Y151.736 E23.98388
G1 X144.261 Y151.796 E24.09484
G1 X143.325 Y151.617 E24.20580
G1 X142.462 Y151.211 E24.31676
G1 X141.728 Y150.603 E24.42771
G1 X141.167 Y149.832 E24.53867
G1 X140.816 Y148.946 E24.64963
G1 X140.697 Y148.000 E24.76059
G1 X140.816 Y147.054 E24.87155
G1 X141.167 Y146.168 E24.98250
G1 X141.728 Y145.397 E25.09346
G1 X142.380 Y144.857 E25.19195
G1 X142.462 Y144.075 F7200.000
G1 X133.705 Y146.335 F7200.000
G1 X133.987 Y147.433 E25.32391 F540.000
G1 X133.987 Y148.567 E25.45587
G1 X133.705 Y149.665 E25.58783
G1 X133.159 Y150.659 E25.71979
G1 X132.383 Y151.485 E25.85175
G1 X131.426 Y152.093 E25.98371
G1 X130.348 Y152.443 E26.11566
G1 X129.216 Y152.514 E26.24763
G1 X128.102 Y152.302 E26.37958
G1 X127.076 Y151.819 E26.51154
G1 X126.203 Y151.096 E26.64350
G1 X125.536 Y150.179 E26.77546
G1 X125.119 Y149.125 E26.90742
G1 X124.977 Y148.000 E27.03938
G1 X125.119 Y146.875 E27.17134
G1 X125.536 Y145.821 E27.30330
G1 X126.203 Y144.904 E27.43526
G1 X127.076 Y144.181 E27.56722
G1 X128.102 Y143.698 E27.69917
G1 X129.216 Y143.486 E27.83113
G1 X130.348 Y143.557 E27.96309
G1 X131.426 Y143.907 E28.09505
G1 X132.383 Y144.515 E28.22701
G1 X133.159 Y145.341 E28.35897
G1 X133.654 Y146.241 E28.47846
G1 X133.036 Y146.600 F7200.000
G1 X133.273 Y147.523 E28.58942 F540.000
G1 X133.273 Y148.477 E28.70038
G1 X133.036 Y149.400 E28.81133
G1 X132.577 Y150.235 E28.92229
G1 X131.924 Y150.930 E29.03325
G1 X131.119 Y151.441 E29.14421
G1 X130.213 Y151.736 E29.25517
G1 X130.077 Y151.744 E29.27097
G1 X129.261 Y151.796 E29.36612
G1 X128.325 Y151.617 E29.47708
G1 X127.462 Y151.211 E29.58804
G1 X126.728 Y150.603 E29.69900
G1 X126.167 Y149.832 E29.80996
G1 X125.816 Y148.946 E29.92091
G1 X125.697 Y148.000 E30.03187
G1 X125.816 Y147.054 E30.14283
G1 X126.167 Y146.168 E30.25379
G1 X126.728 Y145.397 E30.36474
G1 X127.462 Y144.789 E30.47570
G1 X128.325 Y144.383 E30.58666
G1 X129.261 Y144.204 E30.69762
G1 X130.213 Y144.264 E30.80858
G1 X131.119 Y144.559 E30.91953
G1 X131.924 Y145.070 E31.03049
G1 X132.577 Y145.765 E31.14145
G1 X132.984 Y146.506 E31.23994
G1 X133.738 Y146.734 F7200.000
G1 X141.330 Y136.053 F7200.000
G1 X154.977 Y148.000 F7200.000
G1 X155.119 Y146.875 E31.37190 F540.000
G1 X155.202 Y146.665 E31.39820
G1 X155.536 Y145.821 E31.50386
G1 X156.203 Y144.904 E31.63582
G1 X157.076 Y144.181 E31.76778
G1 X158.102 Y143.698 E31.89973
G1 X159.216 Y143.486 E32.03169
G1 X160.348 Y143.557 E32.16365
G1 X161.426 Y143.907 E32.29561
G1 X162.383 Y144.515 E32.42757
G1 X163.159 Y145.341 E32.55953
G1 X163.705 Y146.335 E32.69149
G1 X163.987 Y147.433 E32.82345
G1 X163.987 Y148.567 E32.95541
G1 X163.705 Y149.665 E33.08737
G1 X163.159 Y150.659 E33.21933
G1 X162.383 Y151.485 E33.35128
G1 X161.426 Y152.093 E33.48324
G1 X160.348 Y152.443 E33.61520
G1 X159.216 Y152.514 E33.74716
G1 X158.102 Y152.302 E33.87912
G1 X157.076 Y151.819 E34.01108
G1 X156.203 Y151.096 E34.14304
G1 X155.536 Y150.179 E34.27500
G1 X155.119 Y149.125 E34.40696
G1 X154.990 Y148.106 E34.52645
G1 X155.697 Y148.000 F7200.000
G1 X155.816 Y147.054 E34.63741 F540.000
G1 X155.866 Y146.928 E34.65321
G1 X156.167 Y146.168 E34.74836
G1 X156.728 Y145.397 E34.85932
G1 X157.462 Y144.789 E34.97028
G1 X158.325 Y144.383 E35.08124
G1 X159.261 Y144.204 E35.19220
G1 X160.213 Y144.264 E35.30315
G1 X161.119 Y144.559 E35.41411
G1 X161.924 Y145.070 E35.52507
G1 X162.577 Y145.765 E35.63603
G1 X163.036 Y146.600 E35.74698
G1 X163.273 Y147.523 E35.85794
G1 X163.273 Y148.477 E35.96890
G1 X163.036 Y149.400 E36.07986
G1 X162.577 Y150.235 E36.19082
G1 X161.924 Y150.930 E36.30177
G1 X161.119 Y151.441 E36.41273
G1 X160.213 Y151.736 E36.52369
G1 X159.261 Y151.796 E36.63465
G1 X158.325 Y151.617 E36.74561
G1 X157.462 Y151.211 E36.85656
G1 X156.728 Y150.603 E36.96752
G1 X156.167 Y149.832 E37.07848
G1 X155.816 Y148.946 E37.18944
G1 X155.710 Y148.106 E37.28793
G1 X155.094 Y147.617 F7200.000
G1 X154.700 Y160.000 F7200.000
G1 X178.386 Y159.886 F7200.000
G1 X121.614 Y159.886 E43.89557 F1080.000
G1 X121.614 Y54.114 E56.20633
G1 X144.891 Y54.114 E58.91549
G1 X145.141 Y53.914 E58.95276
G1 X178.386 Y53.914 E62.82214
G1 X178.386 Y159.779 E75.14370
G1 X179.100 Y160.600 F7200.000
G1 X120.900 Y160.600 E81.91759 F756.000
G1 X120.900 Y53.400 E94.39459
G1 X144.640 Y53.400 E97.15772
G1 X144.890 Y53.200 E97.19498
G1 X179.100 Y53.200 E101.17664
G1 X179.100 Y160.493 E113.66444
G1 X178.482 Y160.243 F7200.000
G1 X164.388 Y147.056 F7200.000
G1 X176.736 Y159.404 E115.69791 F1080.000
G1 X175.725 Y159.404 E115.81559
G1 X164.469 Y148.148 E117.66929
G1 X164.361 Y149.050 E117.77509
G1 X174.715 Y159.404 E119.48023
G1 X173.704 Y159.404 E119.59790
G1 X164.153 Y149.852 E121.17094
G1 X163.794 Y150.504 E121.25759
G1 X172.694 Y159.404 E122.72324
G1 X171.683 Y159.404 E122.84092
G1 X163.393 Y151.114 E124.20620
G1 X162.904 Y151.635 E124.28945
G1 X170.673 Y159.404 E125.56891
G1 X169.662 Y159.404 E125.68659
G1 X162.341 Y152.083 E126.89229
G1 X161.723 Y152.475 E126.97756
G1 X168.651 Y159.404 E128.11865
G1 X167.641 Y159.404 E128.23633
G1 X160.981 Y152.744 E129.33315
G1 X160.164 Y152.937 E129.43092
G1 X166.630 Y159.404 E130.49587
G1 X165.620 Y159.404 E130.61355
G1 X159.213 Y152.997 E131.66864
G1 X157.973 Y152.768 E131.81550
G1 X164.609 Y159.404 E132.90839
G1 X163.599 Y159.404 E133.02606
G1 X122.096 Y117.901 E139.86110
G1 X122.096 Y118.912 E139.97878
G1 X131.687 Y128.502 E141.55822
G1 X130.241 Y128.067 E141.73397
G1 X122.096 Y119.922 E143.07541
G1 X122.096 Y120.933 E143.19309
G1 X129.168 Y128.004 E144.35772
G1 X128.319 Y128.166 E144.45833
G1 X122.096 Y121.943 E145.48320
G1 X122.096 Y122.954 E145.60088
G1 X127.562 Y128.420 E146.50108
G1 X126.875 Y128.743 E146.58952
G1 X122.096 Y123.964 E147.37655
G1 X122.096 Y124.975 E147.49423
G1 X126.311 Y129.189 E148.18829
G1 X125.779 Y129.668 E148.27161
G1 X122.096 Y125.985 E148.87807
G1 X122.096 Y126.996 E148.99575
G1 X125.353 Y130.253 E149.53217
G1 X124.988 Y130.898 E149.61849
G1 X122.096 Y128.006 E150.09469
G1 X122.096 Y129.017 E150.21236
G1 X124.701 Y131.622 E150.64135
G1 X124.556 Y132.487 E150.74354
G1 X122.096 Y130.027 E151.14863
G1 X122.096 Y131.038 E151.26631
G1 X124.554 Y133.495 E151.67104
G1 X124.881 Y134.833 E151.83145
G1 X122.096 Y132.048 E152.29012
G1 X122.096 Y133.059 E152.40779
G1 X148.441 Y159.404 E156.74651
G1 X147.431 Y159.404 E156.86419
G1 X134.126 Y146.099 E159.05536
G1 X134.469 Y147.453 E159.21806
G1 X146.420 Y159.404 E161.18621
G1 X145.410 Y159.404 E161.30389
G1 X134.469 Y148.464 E163.10562
G1 X134.296 Y149.301 E163.20522
G1 X144.399 Y159.404 E164.86900
G1 X143.389 Y159.404 E164.98668
G1 X134.041 Y150.056 E166.52618
G1 X133.682 Y150.708 E166.61283
G1 X142.378 Y159.404 E168.04495
G1 X141.367 Y159.404 E168.16263
G1 X133.240 Y151.276 E169.50111
G1 X132.751 Y151.798 E169.58436
G1 X140.357 Y159.404 E170.83702
G1 X139.346 Y159.404 E170.95469
G1 X132.148 Y152.205 E172.14023
G1 X131.506 Y152.573 E172.22644
G1 X138.336 Y159.404 E173.35133
G1 X137.325 Y159.404 E173.46901
G1 X130.743 Y152.821 E174.55308
G1 X129.867 Y152.956 E174.65626
G1 X136.315 Y159.404 E175.71813
G1 X135.304 Y159.404 E175.83581
G1 X128.832 Y152.932 E176.90171
G1 X127.388 Y152.498 E177.07723
G1 X134.294 Y159.404 E178.21447
G1 X133.283 Y159.404 E178.33215
G1 X122.096 Y148.217 E180.17455
G1 X122.096 Y149.227 E180.29222
G1 X132.273 Y159.404 E181.96820
