; generated by Slic3r 1.0.0RC2 on 2015-08-26 at 12:26:08

; layer_height = 0.3
; perimeters = 2
; top_solid_layers = 3
; bottom_solid_layers = 3
; fill_density = 0.1
; perimeter_speed = 60
; infill_speed = 60
; travel_speed = 120
; nozzle_diameter = 0.4
; filament_diameter = 1.75
; extrusion_multiplier = 0.98
; perimeters extrusion width = 0.40mm
; infill extrusion width = 0.42mm
; solid infill extrusion width = 0.42mm
; top infill extrusion width = 0.42mm
; first layer extrusion width = 0.80mm

G21 ; set units to millimeters
M107
M104 S220 ; set temperature
G28 ; home all axes
M106 S255;
G1 Z200 F1200 ; lift nozzle
M109 S220 ; wait for temperature to be reached
G90 ; use absolute coordinates
G92 E0
M82 ; use absolute distances for extrusion
G1 F1800.000 E-1.00000
G92 E0
G1 Z0.400 F7200.000
G1 X114.300 Y46.430 F7200.000
G1 E1.00000 F1800.000
G1 X114.920 Y45.270 E1.15309 F1080.000
G1 X115.750 Y44.250 E1.30614
G1 X116.770 Y43.420 E1.45920
G1 X117.930 Y42.800 E1.61229
G1 X119.190 Y42.410 E1.76580
G1 X120.500 Y42.290 E1.91891
G1 X150.500 Y42.290 E5.41061
G1 X151.420 Y42.350 E5.51791
G1 X180.420 Y46.350 E8.92517
G1 X181.750 Y46.670 E9.08439
G1 X182.990 Y47.260 E9.24422
G1 X184.080 Y48.090 E9.40368
G1 X184.990 Y49.130 E9.56452
G1 X185.660 Y50.330 E9.72448
G1 X186.070 Y51.630 E9.88313
G1 X186.210 Y53.000 E10.04342
G1 X186.210 Y161.000 E22.61352
G1 X186.090 Y162.310 E22.76663
G1 X185.700 Y163.570 E22.92015
G1 X185.080 Y164.730 E23.07324
G1 X184.250 Y165.750 E23.22629
G1 X183.230 Y166.580 E23.37935
G1 X182.070 Y167.200 E23.53244
G1 X180.810 Y167.590 E23.68595
G1 X179.500 Y167.710 E23.83906
G1 X120.500 Y167.710 E30.70606
G1 X119.190 Y167.590 E30.85917
G1 X117.930 Y167.200 E31.01269
G1 X116.770 Y166.580 E31.16577
G1 X115.750 Y165.750 E31.31883
G1 X114.920 Y164.730 E31.47189
G1 X114.300 Y163.570 E31.62497
G1 X113.910 Y162.310 E31.77849
G1 X113.790 Y161.000 E31.93160
G1 X113.790 Y49.000 E44.96726
G1 X113.910 Y47.690 E45.12037
G1 X114.268 Y46.532 E45.26142
G1 F1800.000 E44.26142
G92 E0
G1 X121.614 Y50.114 F7200.000
G1 E1.00000 F1800.000
G1 X150.109 Y50.114 E4.31653 F1080.000
G1 X155.109 Y54.114 E5.06179
G1 X178.386 Y54.114 E7.77096
G1 X178.386 Y159.886 E20.08171
G1 X121.614 Y159.886 E26.68936
G1 X121.614 Y50.221 E39.45320
G1 X120.900 Y49.400 F7200.000
G1 X150.360 Y49.400 E42.88201 F756.000
G1 X155.360 Y53.400 E43.62727
G1 X179.100 Y53.400 E46.39040
G1 X179.100 Y160.600 E58.86739
G1 X120.900 Y160.600 E65.64128
G1 X120.900 Y49.507 E78.57137
G1 X121.518 Y49.757 F7200.000
G1 X149.457 Y50.596 F7200.000
G1 X177.904 Y79.043 E83.28011 F1080.000
G1 X177.904 Y80.059 E83.39898
G1 X148.441 Y50.596 E88.27584
G1 X147.425 Y50.596 E88.39472
G1 X177.904 Y81.075 E93.43969
G1 X177.904 Y82.090 E93.55856
G1 X146.410 Y50.596 E98.77165
G1 X145.394 Y50.596 E98.89052
G1 X177.904 Y83.106 E104.27173
G1 X177.904 Y84.122 E104.39060
G1 X144.378 Y50.596 E109.93992
G1 X143.363 Y50.596 E110.05879
G1 X177.904 Y85.137 E115.77622
G1 X177.904 Y86.153 E115.89510
G1 X142.347 Y50.596 E121.78065
G1 X141.331 Y50.596 E121.89952
G1 X177.904 Y87.168 E127.95318
G1 X177.904 Y88.184 E128.07206
G1 X140.316 Y50.596 E134.29384
G1 X139.300 Y50.596 E134.41271
G1 X177.904 Y89.200 E140.80260
G1 X177.904 Y90.215 E140.92148
G1 X138.285 Y50.596 E147.47949
G1 X137.269 Y50.596 E147.59836
G1 X177.904 Y91.231 E154.32448
G1 X177.904 Y92.247 E154.44336
G1 X136.253 Y50.596 E161.33760
G1 X135.238 Y50.596 E161.45647
G1 X177.904 Y93.262 E168.51883
G1 X177.904 Y94.278 E168.63770
G1 X134.222 Y50.596 E175.86817
G1 X133.206 Y50.596 E175.98704
G1 X177.904 Y95.294 E183.38563
G1 X177.904 Y96.309 E183.50450
G1 X132.191 Y50.596 E191.07120
G1 X131.175 Y50.596 E191.19008
G1 X177.904 Y97.325 E198.92489
G1 X177.904 Y98.341 E199.04377
G1 X130.159 Y50.596 E206.94669
G1 X129.144 Y50.596 E207.06557
G1 X177.904 Y99.356 E215.13661
G1 X177.904 Y100.372 E215.25549
G1 X128.128 Y50.596 E223.49465
G1 X127.112 Y50.596 E223.61352
G1 X177.904 Y101.388 E232.02080
G1 X177.904 Y102.403 E232.13967
G1 X126.097 Y50.596 E240.71506
G1 X125.081 Y50.596 E240.83394
G1 X177.904 Y103.419 E249.57744
G1 X177.904 Y104.435 E249.69632
G1 X124.065 Y50.596 E258.60794
G1 X123.050 Y50.596 E258.72681
G1 X177.904 Y105.450 E267.80655
G1 X177.904 Y106.466 E267.92542
G1 X122.101 Y50.663 E277.16221
G1 X122.096 Y51.673 E277.28050
G1 X177.904 Y107.481 E286.51812
G1 X177.904 Y108.497 E286.63700
G1 X122.096 Y52.689 E295.87461
G1 X122.096 Y53.705 E295.99349
G1 X177.904 Y109.513 E305.23111
G1 X177.904 Y110.528 E305.34998
G1 X122.096 Y54.720 E314.58760
G1 X122.096 Y55.736 E314.70647
G1 X177.904 Y111.544 E323.94409
G1 X177.904 Y112.560 E324.06297
G1 X122.096 Y56.752 E333.30058
G1 X122.096 Y57.767 E333.41946
G1 X177.904 Y113.575 E342.65708
G1 X177.904 Y114.591 E342.77595
G1 X122.096 Y58.783 E352.01357
G1 X122.096 Y59.799 E352.13244
G1 X177.904 Y115.607 E361.37006
G1 X177.904 Y116.622 E361.48894
G1 X122.096 Y60.814 E370.72655
G1 X122.096 Y61.830 E370.84543
G1 X177.904 Y117.638 E380.08305
G1 X177.904 Y118.654 E380.20192
G1 X122.096 Y62.846 E389.43954
G1 X122.096 Y63.861 E389.55842
G1 X177.904 Y119.669 E398.79603
G1 X177.904 Y120.685 E398.91491
G1 X122.096 Y64.877 E408.15253
G1 X122.096 Y65.893 E408.27140
G1 X177.904 Y121.701 E417.50902
G1 X177.904 Y122.716 E417.62789
G1 X122.096 Y66.908 E426.86551
G1 X122.096 Y67.924 E426.98439
G1 X177.904 Y123.732 E436.22200
G1 X177.904 Y124.747 E436.34088
G1 X122.096 Y68.939 E445.57850
G1 X122.096 Y69.955 E445.69737
G1 X177.904 Y125.763 E454.93499
G1 X177.904 Y126.779 E455.05387
G1 X122.096 Y70.971 E464.29148
G1 X122.096 Y71.986 E464.41036
G1 X177.904 Y127.794 E473.64798
G1 X177.904 Y128.810 E473.76685
G1 X122.096 Y73.002 E483.00447
G1 X122.096 Y74.018 E483.12334
G1 X177.904 Y129.826 E492.36096
G1 X177.904 Y130.841 E492.47984
G1 X122.096 Y75.033 E501.71745
G1 X122.096 Y76.049 E501.83633
G1 X177.904 Y131.857 E511.07395
G1 X177.904 Y132.873 E511.19282
G1 X122.096 Y77.065 E520.43044
G1 X122.096 Y78.080 E520.54932
G1 X177.904 Y133.888 E529.78693
G1 X177.904 Y134.904 E529.90581
G1 X122.096 Y79.096 E539.14343
G1 X122.096 Y80.112 E539.26230
G1 X177.904 Y135.920 E548.49992
G1 X177.904 Y136.935 E548.61879
G1 X122.096 Y81.127 E557.85641
G1 X122.096 Y82.143 E557.97529
G1 X177.904 Y137.951 E567.21290
G1 X177.904 Y138.967 E567.33178
G1 X122.096 Y83.159 E576.56940
G1 X122.096 Y84.174 E576.68827
G1 X177.904 Y139.982 E585.92589
G1 X177.904 Y140.998 E586.04477
G1 X122.096 Y85.190 E595.28238
G1 X122.096 Y86.206 E595.40126
G1 X177.904 Y142.014 E604.63888
G1 X177.904 Y143.029 E604.75775
G1 X122.096 Y87.221 E613.99537
G1 X122.096 Y88.237 E614.11424
G1 X177.904 Y144.045 E623.35186
G1 X177.904 Y145.060 E623.47074
G1 X122.096 Y89.252 E632.70835
G1 X122.096 Y90.268 E632.82723
G1 X177.904 Y146.076 E642.06485
G1 X177.904 Y147.092 E642.18372
G1 X122.096 Y91.284 E651.42134
G1 X122.096 Y92.299 E651.54022
G1 X177.904 Y148.107 E660.77783
G1 X177.904 Y149.123 E660.89671
G1 X122.096 Y93.315 E670.13433
G1 X122.096 Y94.331 E670.25320
G1 X177.904 Y150.139 E679.49082
G1 X177.904 Y151.154 E679.60969
G1 X122.096 Y95.346 E688.84731
G1 X122.096 Y96.362 E688.96619
G1 X177.904 Y152.170 E698.20380
G1 X177.904 Y153.186 E698.32268
G1 X122.096 Y97.378 E707.56030
G1 X122.096 Y98.393 E707.67917
G1 X177.904 Y154.201 E716.91679
G1 X177.904 Y155.217 E717.03567
G1 X122.096 Y99.409 E726.27328
G1 X122.096 Y100.425 E726.39216
G1 X177.904 Y156.233 E735.62978
G1 X177.904 Y157.248 E735.74865
G1 X122.096 Y101.440 E744.98627
G1 X122.096 Y102.456 E745.10514
G1 X177.904 Y158.264 E754.34276
G1 X177.904 Y159.280 E754.46164
G1 X122.096 Y103.472 E763.69925
G1 X122.096 Y104.487 E763.81813
G1 X177.013 Y159.404 E772.90823
G1 X175.997 Y159.404 E773.02711
G1 X122.096 Y105.503 E781.94910
G1 X122.096 Y106.518 E782.06797
G1 X174.982 Y159.404 E790.82185
G1 X173.966 Y159.404 E790.94073
G1 X122.096 Y107.534 E799.52648
G1 X122.096 Y108.550 E799.64536
G1 X172.950 Y159.404 E808.06300
G1 X171.935 Y159.404 E808.18188
G1 X122.096 Y109.565 E816.43141
G1 X122.096 Y110.581 E816.55028
G1 X170.919 Y159.404 E824.63170
G1 X169.903 Y159.404 E824.75057
G1 X122.096 Y111.597 E832.66387
G1 X122.096 Y112.612 E832.78275
G1 X168.888 Y159.404 E840.52793
G1 X167.872 Y159.404 E840.64681
G1 X122.096 Y113.628 E848.22388
G1 X122.096 Y114.644 E848.34275
G1 X166.856 Y159.404 E855.75171
G1 X165.841 Y159.404 E855.87058
G1 X122.096 Y115.659 E863.11142
G1 X122.096 Y116.675 E863.23030
G1 X164.825 Y159.404 E870.30302
G1 X163.809 Y159.404 E870.42189
G1 X122.096 Y117.691 E877.32650
G1 X122.096 Y118.706 E877.44538
G1 X162.794 Y159.404 E884.18187
G1 X161.778 Y159.404 E884.30075
G1 X122.096 Y119.722 E890.86912
G1 X122.096 Y120.738 E890.98800
G1 X160.762 Y159.404 E897.38826
G1 X159.747 Y159.404 E897.50714
G1 X122.096 Y121.753 E903.73929
G1 X122.096 Y122.769 E903.85816
G1 X158.731 Y159.404 E909.92219
G1 X157.716 Y159.404 E910.04107
G1 X122.096 Y123.784 E915.93699
G1 X122.096 Y124.800 E916.05586
G1 X156.700 Y159.404 E921.78366
G1 X155.684 Y159.404 E921.90254
G1 X122.096 Y125.816 E927.46223
G1 X122.096 Y126.831 E927.58110
G1 X154.669 Y159.404 E932.97267
G1 X153.653 Y159.404 E933.09155
G1 X122.096 Y127.847 E938.31501
G1 X122.096 Y128.863 E938.43388
G1 X152.637 Y159.404 E943.48922
G1 X151.622 Y159.404 E943.60810
G1 X122.096 Y129.878 E948.49533
G1 X122.096 Y130.894 E948.61420
G1 X150.606 Y159.404 E953.33331
G1 X149.590 Y159.404 E953.45219
G1 X122.096 Y131.910 E958.00318
G1 X122.096 Y132.925 E958.12206
G1 X148.575 Y159.404 E962.50494
G1 X147.559 Y159.404 E962.62382
G1 X122.096 Y133.941 E966.83858
G1 X122.096 Y134.957 E966.95746
G1 X146.543 Y159.404 E971.00411
G1 X145.528 Y159.404 E971.12298
G1 X122.096 Y135.972 E975.00152
G1 X122.096 Y136.988 E975.12040
G1 X144.512 Y159.404 E978.83082
G1 X143.496 Y159.404 E978.94969
G1 X122.096 Y138.004 E982.49200
G1 X122.096 Y139.019 E982.61087
G1 X142.481 Y159.404 E985.98506
G1 X141.465 Y159.404 E986.10394
G1 X122.096 Y140.035 E989.31001
G1 X122.096 Y141.051 E989.42889
G1 X140.449 Y159.404 E992.46685
G1 X139.434 Y159.404 E992.58572
G1 X122.096 Y142.066 E995.45557
G1 X122.096 Y143.082 E995.57444
G1 X138.418 Y159.404 E998.27617
G1 X137.403 Y159.404 E998.39505
G1 X122.096 Y144.097 E1000.92866
G1 X122.096 Y145.113 E1001.04754
G1 X136.387 Y159.404 E1003.41304
G1 X135.371 Y159.404 E1003.53192
G1 X122.096 Y146.129 E1005.72930
G1 X122.096 Y147.144 E1005.84818
G1 X134.356 Y159.404 E1007.87744
G1 X133.340 Y159.404 E1007.99632
G1 X122.096 Y148.160 E1009.85747
G1 X122.096 Y149.176 E1009.97635
G1 X132.324 Y159.404 E1011.66939
G1 X131.309 Y159.404 E1011.78826
G1 X122.096 Y150.191 E1013.31319
G1 X122.096 Y151.207 E1013.43206
G1 X130.293 Y159.404 E1014.78887
G1 X129.277 Y159.404 E1014.90775
G1 X122.096 Y152.223 E1016.09644
G1 X122.096 Y153.238 E1016.21532
G1 X128.262 Y159.404 E1017.23589
G1 X127.246 Y159.404 E1017.35477
G1 X122.096 Y154.254 E1018.20723
G1 X122.096 Y155.270 E1018.32611
G1 X126.230 Y159.404 E1019.01046
G1 X125.215 Y159.404 E1019.12933
G1 X122.096 Y156.285 E1019.64557
G1 X122.096 Y157.301 E1019.76444
G1 X124.199 Y159.404 E1020.11256
G1 X123.183 Y159.404 E1020.23143
G1 X122.096 Y158.317 E1020.41144
G1 X122.096 Y159.332 E1020.53031
G1 X122.168 Y159.404 E1020.54220
G1 X152.601 Y52.725 F7200.000
G1 X177.904 Y78.028 E1024.73047 F1080.000
G1 X177.904 Y77.012 E1024.84934
G1 X155.488 Y54.596 E1028.55975
G1 X156.504 Y54.596 E1028.67863
G1 X177.904 Y75.996 E1032.22093
G1 X177.904 Y74.981 E1032.33980
G1 X157.519 Y54.596 E1035.71398
G1 X158.535 Y54.596 E1035.83286
G1 X177.904 Y73.965 E1039.03892
G1 X177.904 Y72.949 E1039.15780
G1 X159.551 Y54.596 E1042.19575
G1 X160.566 Y54.596 E1042.31462
G1 X177.904 Y71.934 E1045.18446
G1 X177.904 Y70.918 E1045.30333
G1 X161.582 Y54.596 E1048.00505
G1 X162.598 Y54.596 E1048.12393
G1 X177.904 Y69.902 E1050.65753
G1 X177.904 Y68.887 E1050.77641
G1 X163.613 Y54.596 E1053.14190
G1 X164.629 Y54.596 E1053.26077
G1 X177.904 Y67.871 E1055.45815
G1 X177.904 Y66.856 E1055.57702
G1 X165.644 Y54.596 E1057.60628
G1 X166.660 Y54.596 E1057.72516
G1 X177.904 Y65.840 E1059.58630
G1 X177.904 Y64.824 E1059.70518
G1 X167.676 Y54.596 E1061.39821
G1 X168.691 Y54.596 E1061.51708
G1 X177.904 Y63.809 E1063.04200
G1 X177.904 Y62.793 E1063.16087
G1 X169.707 Y54.596 E1064.51767
G1 X170.723 Y54.596 E1064.63654
G1 X177.904 Y61.777 E1065.82523
G1 X177.904 Y60.762 E1065.94410
G1 X171.738 Y54.596 E1066.96467
G1 X172.754 Y54.596 E1067.08355
G1 X177.904 Y59.746 E1067.93600
G1 X177.904 Y58.730 E1068.05488
G1 X173.770 Y54.596 E1068.73921
G1 X174.785 Y54.596 E1068.85809
G1 X177.904 Y57.715 E1069.37431
G1 X177.904 Y56.699 E1069.49319
G1 X175.801 Y54.596 E1069.84130
G1 X176.817 Y54.596 E1069.96017
G1 X177.904 Y55.683 E1070.14016
G1 X177.904 Y54.668 E1070.25904
G1 X177.832 Y54.596 E1070.27092
G1 F1800.000 E1069.27092
G92 E0
G1 Z0.700 F7200.000
G1 X178.900 Y53.600 F7200.000
G1 E1.00000 F1800.000
G1 X178.900 Y160.400 E6.22171 F3600
G1 X121.100 Y160.400 E9.04769
G1 X121.100 Y49.600 E14.46497
G1 X150.290 Y49.600 E15.89211
G1 X155.290 Y53.600 E16.20518
G1 X178.840 Y53.600 E17.35662
G1 X179.300 Y53.200 F7200.000
G1 X179.300 Y160.800 E22.61744 F2520
G1 X120.700 Y160.800 E25.48253
G1 X120.700 Y49.200 E30.93892
G1 X150.430 Y49.200 E32.39249
G1 X155.430 Y53.200 E32.70555
G1 X179.240 Y53.200 E33.86969
G1 X179.100 Y53.546 F7200.000
G1 F1800.000 E32.86969
G92 E0
G1 X121.373 Y49.915 F7200.000
G1 E1.00000 F1800.000
G1 X121.415 Y49.873 E1.00305 F3600
G1 X122.009 Y49.873 E1.03351
G1 X121.373 Y50.509 E1.07964
G1 X121.373 Y51.103 E1.11011
G1 X122.603 Y49.873 E1.19932
G1 X123.196 Y49.873 E1.22978
G1 X121.373 Y51.696 E1.36208
G1 X121.373 Y52.290 E1.39255
G1 X123.790 Y49.873 E1.56793
G1 X124.384 Y49.873 E1.59839
G1 X121.373 Y52.884 E1.81686
G1 X121.373 Y53.477 E1.84732
G1 X124.977 Y49.873 E2.10887
G1 X125.571 Y49.873 E2.13933
G1 X121.373 Y54.071 E2.44397
G1 X121.373 Y54.665 E2.47443
G1 X126.165 Y49.873 E2.82215
G1 X126.758 Y49.873 E2.85261
G1 X121.373 Y55.258 E3.24341
G1 X121.373 Y55.852 E3.27388
G1 X127.352 Y49.873 E3.70776
G1 X127.946 Y49.873 E3.73823
G1 X121.373 Y56.446 E4.21519
G1 X121.373 Y57.040 E4.24566
G1 X128.540 Y49.873 E4.76571
G1 X129.133 Y49.873 E4.79617
G1 X121.373 Y57.633 E5.35931
G1 X121.373 Y58.227 E5.38977
G1 X129.727 Y49.873 E5.99599
G1 X130.321 Y49.873 E6.02646
G1 X121.373 Y58.821 E6.67576
G1 X121.373 Y59.414 E6.70622
G1 X130.914 Y49.873 E7.39861
G1 X131.508 Y49.873 E7.42908
G1 X121.373 Y60.008 E8.16455
G1 X121.373 Y60.602 E8.19501
G1 X132.102 Y49.873 E8.97356
G1 X132.695 Y49.873 E9.00403
G1 X121.373 Y61.195 E9.82567
G1 X121.373 Y61.789 E9.85613
G1 X133.289 Y49.873 E10.72085
G1 X133.883 Y49.873 E10.75132
G1 X121.373 Y62.383 E11.65912
G1 X121.373 Y62.977 E11.68959
G1 X134.477 Y49.873 E12.64048
G1 X135.070 Y49.873 E12.67094
G1 X121.373 Y63.570 E13.66492
G1 X121.373 Y64.164 E13.69538
G1 X135.664 Y49.873 E14.73244
G1 X136.258 Y49.873 E14.76290
G1 X121.373 Y64.758 E15.84304
G1 X121.373 Y65.351 E15.87351
G1 X136.851 Y49.873 E16.99673
G1 X137.445 Y49.873 E17.02720
G1 X121.373 Y65.945 E18.19351
G1 X121.373 Y66.539 E18.22397
G1 X138.039 Y49.873 E19.43336
G1 X138.632 Y49.873 E19.46383
G1 X121.373 Y67.132 E20.71630
G1 X121.373 Y67.726 E20.74677
G1 X139.226 Y49.873 E22.04233
G1 X139.820 Y49.873 E22.07279
G1 X121.373 Y68.320 E23.41143
G1 X121.373 Y68.914 E23.44190
G1 X140.414 Y49.873 E24.82363
G1 X141.007 Y49.873 E24.85409
G1 X121.373 Y69.507 E26.27890
G1 X121.373 Y70.101 E26.30937
G1 X141.601 Y49.873 E27.77726
G1 X142.195 Y49.873 E27.80773
G1 X121.373 Y70.695 E29.31871
G1 X121.373 Y71.288 E29.34917
G1 X142.788 Y49.873 E30.90323
G1 X143.382 Y49.873 E30.93370
G1 X121.373 Y71.882 E32.53084
G1 X121.373 Y72.476 E32.56131
G1 X143.976 Y49.873 E34.20154
G1 X144.569 Y49.873 E34.23200
G1 X121.373 Y73.069 E35.91532
G1 X121.373 Y73.663 E35.94578
G1 X145.163 Y49.873 E37.67218
G1 X145.757 Y49.873 E37.70264
G1 X121.373 Y74.257 E39.47212
G1 X121.373 Y74.851 E39.50259
G1 X146.351 Y49.873 E41.31515
G1 X146.944 Y49.873 E41.34562
G1 X121.373 Y75.444 E43.20127
G1 X121.373 Y76.038 E43.23173
G1 X147.538 Y49.873 E45.13046
G1 X148.132 Y49.873 E45.16093
G1 X121.373 Y76.632 E47.10275
G1 X121.373 Y77.225 E47.13321
G1 X148.725 Y49.873 E49.11811
